X:102
T:Bells of Paris
S:Transcribed from Kim Robertson (Wood, Fire, & Gold)
M:4/4
L:1/8
R:Air
K:A Aeolian
AB|:"Am"c2 B2 A2 cA|"Em"GEDE G2 AB|"F"c2 B2 A2 GA|"C"cBcd e2 de|!
"Dm"f2 ed "Em"e2 dc|"F"dcBA "G"G2 cB|"F"ABcd "Em"egde|"Am"c2 A2 A2 ed:|

